public/assets/icons/save.svg

<?xml version="1.0" standalone="no"?>
<!DOCTYPE svg PUBLIC "-//W3C//DTD SVG 1.1//EN" "http://www.w3.org/Graphics/SVG/1.1/DTD/svg11.dtd" >
<svg xmlns="http://www.w3.org/2000/svg" xmlns:xlink="http://www.w3.org/1999/xlink" version="1.1" viewBox="0 -64 1024 1024" width="512" height="512">
  <g transform="matrix(1 0 0 -1 0 960)">
   <path fill="currentColor"
d="M512 789l-296 -170v-342l296 -170l296 170v342zM276 585h472l-236 -410l-118 205zM512 516q-28 0 -48 -20t-20 -48v0v0v0v0v0q0 -28 20 -48t48 -20v0q28 0 48 20t20 48v0v0v0v0v0q0 28 -20 48t-48 20v0z" />
  </g>

</svg>

<?xml version="1.0" encoding="UTF-8" standalone="no"?>
<svg
   version="1.1"
   viewBox="0 -64 1024 1024"
   width="512"
   height="512"
   id="svg2232"
   sodipodi:docname="save.svg"
   inkscape:version="1.2.2 (732a01da63, 2022-12-09)"
   xmlns:inkscape="http://www.inkscape.org/namespaces/inkscape"
   xmlns:sodipodi="http://sodipodi.sourceforge.net/DTD/sodipodi-0.dtd"
   xmlns="http://www.w3.org/2000/svg"
   xmlns:svg="http://www.w3.org/2000/svg">
  <defs
     id="defs2236" />
  <sodipodi:namedview
     id="namedview2234"
     pagecolor="#ffffff"
     bordercolor="#000000"
     borderopacity="0.25"
     inkscape:showpageshadow="2"
     inkscape:pageopacity="0.0"
     inkscape:pagecheckerboard="0"
     inkscape:deskcolor="#d1d1d1"
     showgrid="false"
     inkscape:zoom="1.6191406"
     inkscape:cx="236.23643"
     inkscape:cy="256.30881"
     inkscape:window-width="1920"
     inkscape:window-height="1009"
     inkscape:window-x="-8"
     inkscape:window-y="-8"
     inkscape:window-maximized="1"
     inkscape:current-layer="svg2232" />
  <g
     transform="matrix(1,0,0,-1,0,896)"
     id="g2230">
    <path
       fill="currentColor"
       d="M 512,789 216,619 V 277 L 512,107 808,277 V 619 Z M 276,585 H 748 L 512,175 394,380 Z m 236,-69 q -28,0 -48,-20 -20,-20 -20,-48 v 0 0 0 0 0 q 0,-28 20,-48 20,-20 48,-20 v 0 q 28,0 48,20 20,20 20,48 v 0 0 0 0 0 q 0,28 -20,48 -20,20 -48,20 z"
       id="path2228" />
  </g>
</svg>
